X: 3318
M: C
L: 1/8
K: D
(uAG) |\
(dc)dc (df)ed | (cd)Bc (AB)AG |\
(df)af (bg)ec | d2f2d2 :|
|: (fg) |\
a2fd A2ef | g2ec A2ef |\
(ge)ge (fd)fd | (cd)Bc (AB)AG |\
(df)af (bg)ec | d2f2d2 :|


